X:1
T:Title
%%score { ( 1 3 ) | ( 2 4 ) }
L:1/8
M:4/4
K:D
V:1 treble nm="Grand Piano"
V:3 treble 
V:2 bass 
V:4 bass 
V:1
 z4 z2[Q:1/4=100] D>F | [FA]6 z2 | [FA]6 z2 | [Ec]6 z2 | [DF]6[K:bass] z2[K:treble] | [FA]6 z2 | %6
 [FA]6 z2 | [Ec]6 z2 | [EA]6 z2 | [Ge]3 [Ge] [Fd][Ec] .[GB]2 | [A,FA]2 [Fd]4 [A,DF][A,DF] | %11
 [DFB]3 [DFB] [Fd]2 [Fd]2 | c6 cc | c3 d e2 dc | [Fd]2 [DB]4 [DF][D^G] | [CA]3 B c2 B2 | %16
[M:9/8] [A,CA]8- [A,CA] |[M:1/4] [F,D]>[A,DF] |[M:4/4] [FA]6 z2 | [FA]6 z2 | [Ec]6 z2 | [DF]6 z2 | %22
 d2- [A,d-]>[A,d-] [Ad]>[Ad] [Ad]>[Ad] | [Ge]2 [Bd]2 [Ac]>[Ac] [GB]>[GB] | %24
 [FA]>[FA] [GB]>[FA] [A,EG]2 [A,CA]2 | z4 [DA]4 | [DGB]4 [DFA]4 | G2- [EGc]2 [DAd]2 e2 | %28
 d4 c2- [Gc]2 |[M:3/4] [Fd]6 |] %30
V:2
 z4 z2 [D,F,]>[D,A,D] | [D,D]2 D,>D, D,>[D,D] [D,D]>[D,D] | [D,D]>D, D,>D, D,>D, D,>[D,A,] | %3
 [A,,A,]2 A,,>A,, A,,>[A,,A,] [A,,A,]>[A,,A,] | [D,A,]>D, D,>D, D,2 [D,F,]>[D,A,D] | %5
 [D,D]2 D,>D, D,>[D,D] [D,D]>[D,D] | [D,D]>D, D,>D, D,>[D,D] [D,D]>[D,A,] | %7
 [E,A,]2 E,>E, E,>[E,B,E] [E,A,E]>[E,DE] | A,,>A,, A,,>A,, A,,2 A,,>A,, | %9
 [A,,A,]3 [A,,A,] [A,,A,]2 z[K:treble] c | D,2 [D,A,]4 D,D, | B,,3 B,, [B,,B,]2 [B,,B,]2 | %12
 [F,^A,F]6 [F,A,F][F,A,F] | [F,^A,F]3 [F,B,F] [F,CF]2 [F,F]-[F,A,F] | %14
 [B,,B,]2 [B,,B,]4 [B,,B,][B,,E,] | [A,,A,]3 [E,^G,E] [A,E]2 [E,G,D]2 |[M:9/8] A,,8- A,, | %17
[M:1/4] D,>D, |[M:4/4] D,2 D,>D, D,>[D,D] [D,D]>[D,D] | [D,D]>D, D,>D, D,2 D,>[D,A,] | %20
 [A,,A,]2 A,,>A,, A,,>[A,,A,] [A,,A,]>[A,,A,] | [D,A,]>D, D,>D, D,2 D,>D, | %22
 [D,A,]2 D,>D, [F,D]>[F,D] [F,D]>[F,D] | [G,B,]2 [G,D]2 [G,D]>[G,D] [G,D]>[G,D] | %24
 [D,D]>[D,D] [D,D]>[D,D] C,2 A,,2 | D,2 D,2 z2[K:treble] c2 | G,4[K:bass] D,4 | %27
 G,2 E,2 F,2[K:treble] [G,B,G]2 | [A,F]4[K:bass] [A,,A,]4 |[M:3/4] [D,A,]6 |] %30
V:3
 x8 | z2 D>D D>[FA] [GB]>[Bd] | z z/ D/ D>D D>[B,=F^G] [A,^FA]>[FB] | z2 A,>A, A,>[GB] [EG]>[CA] | %4
 z z/[K:bass] A,/ A,>A, A,2 D>[K:treble]F | z2 D>D D>[FA] [GB]>[Bd] | %6
 z z/ D/ D>D D>[=F^G] [^FA]>[FB] | z2 A,>A, A,>d c>B | C>C C>C C2 [CEA]>[CEA] | x8 | x8 | x8 | x8 | %13
 x8 | x8 | x8 |[M:9/8] x9 |[M:1/4] x2 |[M:4/4] D2 D>D D>[FA] [GB]>[Bd] | %19
 z z/ D/ D>D D2 [A,FA]>[FB] | z2 A,>A, A,>[GB] [EG]>[CA] | z z/ A,/ A,>A, A,2 [A,FA]>[A,FA] | %22
 F4 z4 | x8 | x8 | [A,DF]2 [DFA]2 d2 z2 | x8 | [DB]2 z2 z4 | z4 E2 z2 |[M:3/4] x6 |] %30
V:4
 x8 | x8 | x8 | x8 | x8 | x8 | x8 | x8 | x8 | z4 z2 [A,,A,]2[K:treble] | x8 | x8 | x8 | %13
 z4 z2 .B,2 | x8 | x8 |[M:9/8] x9 |[M:1/4] x2 |[M:4/4] x8 | x8 | x8 | x8 | x8 | x8 | x8 | %25
 z4 F,4[K:treble] | x4[K:bass] x4 | x6[K:treble] x2 | x4[K:bass] x4 |[M:3/4] x6 |] %30

